X:1
T:Genevieve
C:Tapage, Jean-Claude Koffmann
R:bourree a trois temps
A:France
F:http://simonwascher.info
Z:abc transcription Helmut Eberl
M:3/8
L:1/16
K:Dm
A2BA2G | F2^F2G2 | A2GA2B | A2G2F2 |\
A2BA2G |1 F2^F2G2 | AGAB=B^c | d6 :|\
       [2 F4E2 | DEFDEF | ^F6 ||
K:G
F2DF2D | C2A2G2 | F2DEFG | A2F2D2 |\
F2DF2D | C2A2G2 |1 F2DEFG | E6 :|\
                [2 F2CDEC | D6 |]
